logo/delighted-icon.svg

<svg viewBox="0 0 256 256" xmlns="http://www.w3.org/2000/svg"><path fill="#4C4C4B" d="M128 0C57.3 0 0 57.308 0 128c0 70.69 57.308 128 128 128 70.69 0 128-57.31 128-128C256 57.3 198.69 0 128 0v0ZM82.26 189.39c29.12 23.6 74.72 17.006 100.988-14.43 -25.48-3.38-55.56-11.357-79.962-20.88 -6.6 12.73-11.67 22.86-21.03 35.3ZM157.15 60.67c-15.97 4.09-36.84 39.69-49.113 78.68 29.77 13.5 53.1 19.03 85.33 22.91 0 0 29.77-66.61-36.22-101.61ZM146.4 224.38c-34.78 6.68-79.808-11.52-96.537-38.22 0 0 23.93-26.54 30.542-42.06 -7.13-5.53-11.41-8.71-15.96-12.76 -26.228-23.39-25.762-55.58.99-78.43C95.27 27.43 140.69 23.3 175.73 42.9c35.38 19.78 55.56 60.502 49.15 99.16 -7.03 42.38-38.83 74.67-78.501 82.299v0ZM134.12 55.55c-20.06-.29-35.22 3.73-49.31 13.69 -23.159 16.37-22.033 42.48 2.78 58.06 11.84-27.26 21.42-52.042 46.52-71.761"/></svg>

<?xml version="1.0" encoding="UTF-8" standalone="no"?>
<svg width="256px" height="256px" viewBox="0 0 256 256" version="1.1" xmlns="http://www.w3.org/2000/svg" xmlns:xlink="http://www.w3.org/1999/xlink" preserveAspectRatio="xMidYMid">
    <g>
        <path d="M128,0 C57.308,0 0,57.308 0,128 C0,198.692 57.308,256 128,256 C198.692,256 256,198.692 256,128 C256,57.308 198.692,0 128,0 L128,0 Z M82.264,189.391 C111.391,212.999 156.988,206.397 183.252,174.964 C157.775,171.587 127.693,163.607 103.29,154.091 C96.691,166.83 91.626,176.959 82.264,189.391 Z M157.161,60.675 C141.199,64.767 120.326,100.374 108.048,139.357 C137.822,152.863 161.151,158.388 193.381,162.276 C193.381,162.276 223.156,95.667 157.161,60.675 Z M146.417,224.384 C111.637,231.072 66.609,212.873 49.88,186.168 C49.88,186.168 73.815,159.629 80.422,144.115 C73.298,138.588 69.013,135.408 64.468,131.355 C38.24,107.969 38.706,75.783 65.467,52.928 C95.304,27.446 140.72,23.325 175.761,42.922 C211.144,62.71 231.327,103.424 224.918,142.085 C217.891,184.469 186.089,216.755 146.417,224.384 L146.417,224.384 Z M134.139,55.559 C114.082,55.269 98.922,59.294 84.833,69.253 C61.674,85.623 62.8,111.739 87.613,127.32 C99.453,100.067 109.036,75.278 134.139,55.559" fill="#4C4C4B"></path>
    </g>
</svg>
